X: 246
T: Indian Ate a Woodchuck [1]
B: canberra pickers and fiddlers
B: tunes
M:4/4
L:1/8
R: reel
Q: 1/4=100
K:C
V:1 
|:"C"eceg a2g2|"G"ed2d [d4g4]|"G"eceg a2 ag|"G"eged "C"[c4e4]|
"C"egeg a2g2|"G"ed2d ""[d4g4]|"F"a4 abag|1 "G"edcB "C"[E4c4]:|2 "G"edcB "C"[E2c2]cA|]
|:"Am"GFED CDEG|"G"A2dc d2cA|"C"GFED CDEG|"G"A2B2"C"c2 eA|
"Am"GFED CDEG|"G"A2 dc d2cA|"C"GFED CDEG|1 "G"A""cBd "C"c2 cA:|2 "G"AcBd "C"[E4c4]||
% abcbook-tune_id 63ae8f1c72de993d0d9a0aae
% abcbook-tune_composer_id 
% abcbook-link-0 https://www.youtube.com/watch?v=qkugtEba46o
% abcbook-link-end-at-0 177
% abcbook-boost 0
% abcbook-difficulty 0
% abcbook-tags canberra pickers and fiddlers,old time tunes,© free
% abcbook-tablature 
% abcbook-transpose 
% abcbook-tuning GDAE
% abcbook-lastupdated 1738999222282
% abcbook-src-url https://tunebook.net/scrape/tunes.abc
% abcbook-soundfonts 
% abcbook-repeats 1


